X:389
T: HOERT IHR HERRN UND LASST EUCH SAGEN
N: E1580
O: Europa, Mitteleuropa, Deutschland, Norddeutschland, Havel, Zehdenick
R: Staende - Lied, Nachtwaechter
M: 4/4
L: 1/8
K: Eb
 | E2EGB2B2 | BAFAG2E2 |
e2e2f3d | fedcB2F2 |
B3Ge3B | BAGAF4 |
f2d2e2G2 | A2B2E4 |
E2EGB2B2 | BAFAG2E2 |
e2e2f3d | fedcB2F2 |
B3Ge3B | BAGAF4 |
f2d2e2G2 | A2B2E4

@@@ Tune index: 5073
